icon-themes/breeze_svg/cmd/lc_downsearch.svg

<svg viewBox="0 0 24 24" xmlns="http://www.w3.org/2000/svg"><path d="m4.7070312 8-.7070312.7070312 6.125 6.1249998 1.875 1.875 1.875-1.875 6.125-6.1249998-.707031-.7070312-6.125 6.125-1.167969 1.167969-1.167969-1.167969z" fill="#4d4d4d"/></svg>

<svg xmlns="http://www.w3.org/2000/svg" viewBox="0 0 24 24">
 <path 
     style="fill:#4d4d4d" 
     d="M 4.7070312 8 L 4 8.7070312 L 10.125 14.832031 L 12 16.707031 L 13.875 14.832031 L 20 8.7070312 L 19.292969 8 L 13.167969 14.125 L 12 15.292969 L 10.832031 14.125 L 4.7070312 8 z "
     />
 </svg>
